!!!OTL: 323. Prinz Eugen vor Kussel (= Festung Lille; 1708).
!!!ARE: Europa, Mitteleuropa, Deutschland
!!!SCT: E0323A
!!!TXL: @@DE
!!!YEM: Copyright 1995, estate of Helmut Schaffrath.
**kern	**text
*ICvox	*
*M4/4	*
*met(c)	*
*k[b-e-]	*
*B-:	*
=1	=1
!LO:TX:a:t=Lille, du allerschönste Stadt.	!
!LO:TX:a:t=Handſchriftl. Studentenliederb. 1720.	!
!LO:TX:a:t=Dieſelbe Melodie nach der älteſten Quelle.	!
{4.b-	Vi-
8f	-vant
4d	om-
4f	-nes,
=2	=2
4b-	hi
4b-	et
4b-	hae,
4r}	.
=3	=3
{4dd	hi
4dd	et
4cc	hae,
4r	.
=4	=4
4ee-	qui
4dd	et
4cc	quae,
4r}	.
=5	=5
{4cc	ho-
4cc	-rum
4cc	ha-
4ff	-rum
=6	=6
8ccL	quo-
8b-J	.
8aL	-rum
8gJ	.
4a	qua-
4f}	-rua
=7	=7
{4cc	ho-
4cc	-rum
4cc	ha-
4ff	-rum
=8	=8
8ccL	quo-
8b-J	.
8aL	-rum
8gJ	.
4a	qua-
4f}	-rua
=9	=9
{4b-	sa-
4b-	-ni-
4cc	-ta-
4cc	-tem
=10	=10
4dd	bi-
4dd	-ba-
4cc	-mus,
4r	.
=11	=11
(8ccqq	.
4dd)	bi-
4dd	-ba-
4cc	-mus,
4r}	.
=12	=12
{4.ff	sa-
8ee-	-ni-
4dd	-ta-
4cc	-tem
=13	=13
4b-	bi-
4a	-ba-
4b-	-mus.
4r}	.
==	==
!!!AGN: historisches Lied, Festung Lille (1708)
!!!ONB: ESAC (Essen Associative Code) Database: ERK1
!!!AMT: simple quadruple
!!!AIN: vox
!!!EED: Helmut Schaffrath
!!!EEV: 1.0
!!!GTL: Historische Lieder
!!!URL-scan: https://rosdok.uni-rostock.de/mcrviewer/recordIdentifier/rosdok_ppn745177662/iview2/phys_0136.iview2?x=-544.0401362767932&y=217.33854268072173&scale=0.4722427387526479&rotation=0&layout=singlePageLayout
!!!ENC: Anna Maria Matuszewska
!!!EEV: 2024/06/12
*-	*-
